www/assets/icons/macro_off.svg

<svg width="24" height="24" viewBox="0 0 24 24" xmlns="http://www.w3.org/2000/svg" fill='currentColor'><path d="M20.69 17.35C21.34 16.11 21.71 14.7 21.71 13.2C20.21 13.2 18.8 13.57 17.56 14.22L20.69 17.35Z"/><path d="M3.70998 13.2C3.70998 18.17 7.73998 22.2 12.71 22.2C12.71 17.23 8.67998 13.2 3.70998 13.2Z"/><path d="M12.71 5.69995C14.09 5.69995 15.21 6.81995 15.21 8.19995C15.21 9.18995 14.63 10.04 13.79 10.45L16.27 12.93C16.38 12.95 16.5 12.96 16.62 12.96C18 12.96 19.12 11.84 19.12 10.46C19.12 9.45995 18.53 8.60995 17.69 8.20995C18.53 7.80995 19.12 6.95995 19.12 5.95995C19.12 4.57995 18 3.45995 16.62 3.45995C16.09 3.45995 15.61 3.61995 15.2 3.89995L15.21 3.69995C15.21 2.31995 14.09 1.19995 12.71 1.19995C11.33 1.19995 10.21 2.31995 10.21 3.69995L10.23 3.88995C9.82998 3.60995 9.33998 3.44995 8.80998 3.44995C8.23998 3.44995 7.71998 3.64995 7.29998 3.96995L10.46 7.12995C10.87 6.27995 11.72 5.69995 12.71 5.69995Z"/><path d="M3.51998 3.00995L2.09998 4.41995L6.73998 9.05995C6.46998 9.45995 6.30998 9.92995 6.30998 10.45C6.30998 11.83 7.42998 12.95 8.80998 12.95C9.32998 12.95 9.79998 12.79 10.21 12.52L10.23 12.54L10.21 12.7C10.21 14.08 11.33 15.2 12.71 15.2C12.76 15.2 12.81 15.19 12.87 15.18L14.51 16.82C13.38 18.32 12.71 20.18 12.71 22.2C14.73 22.2 16.59 21.53 18.09 20.4L20.49 22.8L21.9 21.39L3.51998 3.00995Z"/></svg>

<svg xmlns="http://www.w3.org/2000/svg" width="24" height="24" viewBox="0 0 24 24" fill='currentColor'><path d="M20.69 17.35a8.9 8.9 0 0 0 1.02-4.15c-1.5 0-2.91.37-4.15 1.02zM3.71 13.2a9 9 0 0 0 9 9 9 9 0 0 0-9-9m9-7.5a2.5 2.5 0 0 1 2.5 2.5c0 .99-.58 1.84-1.42 2.25l2.48 2.48c.11.02.23.03.35.03a2.5 2.5 0 0 0 2.5-2.5c0-1-.59-1.85-1.43-2.25.84-.4 1.43-1.25 1.43-2.25A2.5 2.5 0 0 0 15.2 3.9l.01-.2a2.5 2.5 0 0 0-5 0l.02.19a2.485 2.485 0 0 0-2.93.08l3.16 3.16c.41-.85 1.26-1.43 2.25-1.43"/><path d="M3.52 3.01 2.1 4.42l4.64 4.64c-.27.4-.43.87-.43 1.39a2.5 2.5 0 0 0 2.5 2.5c.52 0 .99-.16 1.4-.43l.02.02-.02.16a2.5 2.5 0 0 0 2.5 2.5c.05 0 .1-.01.16-.02l1.64 1.64a8.9 8.9 0 0 0-1.8 5.38c2.02 0 3.88-.67 5.38-1.8l2.4 2.4 1.41-1.41z"/></svg>
